javascript.info/5-animation/3-js-animation/circ-ease.svg

<?xml version="1.0" encoding="UTF-8" standalone="no"?>
<svg width="234px" height="240px" viewBox="0 0 234 240" version="1.1" xmlns="http://www.w3.org/2000/svg" xmlns:xlink="http://www.w3.org/1999/xlink" xmlns:sketch="http://www.bohemiancoding.com/sketch/ns">
    <!-- Generator: bin/sketchtool 1.3 (252) - http://www.bohemiancoding.com/sketch -->
    <title>circ-ease.svg</title>
    <desc>Created with bin/sketchtool.</desc>
    <defs></defs>
    <g id="combined" stroke="none" stroke-width="1" fill="none" fill-rule="evenodd" sketch:type="MSPage">
        <g id="circ-ease.svg" sketch:type="MSArtboardGroup">
            <path d="M34,209.5 L34,22.1600037" id="Line" stroke="#E8C48E" stroke-width="2" stroke-linecap="square" sketch:type="MSShapeGroup"></path>
            <path id="Line-decoration-1" d="M34,22.5 C32.95,26.28 32.05,29.52 31,33.3 C33.1,33.3 34.9,33.3 37,33.3 C35.95,29.52 35.05,26.28 34,22.5 C34,22.5 34,22.5 34,22.5 Z" stroke="#E8C48E" stroke-width="2" stroke-linecap="square"></path>
            <path d="M24.5,194 L208.509995,194" id="Line" stroke="#E8C48E" stroke-width="2" stroke-linecap="square" sketch:type="MSShapeGroup"></path>
            <path id="Line-decoration-1" d="M208.5,194 C204.72,192.95 201.48,192.05 197.7,191 C197.7,193.1 197.7,194.9 197.7,197 C201.48,195.95 204.72,195.05 208.5,194 C208.5,194 208.5,194 208.5,194 Z" stroke="#E8C48E" stroke-width="2" stroke-linecap="square"></path>
            <path d="M35.1598321,193.734972 C116.357678,193.734973 200.574538,141.537458 208.465749,22.4456533" id="Path-747" stroke="#EE6B47" stroke-width="3" stroke-linejoin="bevel" sketch:type="MSShapeGroup"></path>
            <path d="M35.1598321,193.734972 C116.357678,193.734973 200.574538,141.537458 208.465749,22.4456533" id="Path-748" stroke="#8DB173" stroke-width="3" stroke-linejoin="bevel" sketch:type="MSShapeGroup" transform="translate(121.812790, 108.090312) scale(-1, -1) translate(-121.812790, -108.090312) "></path>
            <text id="0" sketch:type="MSTextLayer" font-family="Consolas" font-size="14" font-weight="bold" fill="#8A704D">
                <tspan x="17" y="212">0</tspan>
            </text>
            <text id="1" sketch:type="MSTextLayer" font-family="Consolas" font-size="14" font-weight="bold" fill="#8A704D">
                <tspan x="17" y="36">1</tspan>
            </text>
            <text id="-2" sketch:type="MSTextLayer" font-family="Consolas" font-size="14" font-weight="bold" fill="#8A704D">
                <tspan x="200" y="212">1</tspan>
            </text>
            <path d="M35.4840461,192.776816 C53.45735,186.177656 112.052703,195.594079 121.221885,109.458253 C130.391067,23.3224269 202.177314,24.4036062 206.959731,21.4508296" id="Path-770" stroke="#62C0DC" stroke-width="3" stroke-linejoin="bevel" sketch:type="MSShapeGroup"></path>
        </g>
    </g>
</svg>

<svg width="234" height="240" viewBox="0 0 234 240" xmlns="http://www.w3.org/2000/svg"><title>circ-ease.svg</title><desc>Created with bin/sketchtool.</desc><g fill="none" fill-rule="evenodd"><path d="M34 209.5V22.16" stroke="#E8C48E" stroke-width="2" stroke-linecap="square"/><path d="M34 22.5l-3 10.8h6l-3-10.8z" stroke="#E8C48E" stroke-width="2" stroke-linecap="square"/><path d="M24.5 194h184.01" stroke="#E8C48E" stroke-width="2" stroke-linecap="square"/><path d="M208.5 194l-10.8-3v6l10.8-3z" stroke="#E8C48E" stroke-width="2" stroke-linecap="square"/><path d="M35.16 193.735c81.198 0 165.415-52.198 173.306-171.29" stroke="#EE6B47" stroke-width="3" stroke-linejoin="bevel"/><path d="M208.466 22.445c-81.198 0-165.415 52.198-173.306 171.29" stroke="#8DB173" stroke-width="3" stroke-linejoin="bevel"/><text font-family="Consolas" font-size="14" font-weight="bold" fill="#8A704D"><tspan x="17" y="212">0</tspan></text><text font-family="Consolas" font-size="14" font-weight="bold" fill="#8A704D"><tspan x="17" y="36">1</tspan></text><text font-family="Consolas" font-size="14" font-weight="bold" fill="#8A704D"><tspan x="200" y="212">1</tspan></text><path d="M35.484 192.777c17.973-6.6 76.57 2.817 85.738-83.32 9.17-86.135 80.955-85.053 85.738-88.006" stroke="#62C0DC" stroke-width="3" stroke-linejoin="bevel"/></g></svg>
